src/assets/images/video_party_icon.svg

<svg height="1026" viewBox="0 0 1026 1026" width="1026" xmlns="http://www.w3.org/2000/svg" xmlns:xlink="http://www.w3.org/1999/xlink"><linearGradient id="a" x1="27.547471%" x2="78.615383%" y1="5.201963%" y2="91.100477%"><stop offset="0" stop-color="#fff"/><stop offset="1" stop-color="#e2e2e2"/></linearGradient><linearGradient id="b" x1="21.926541%" x2="80.090332%" y1="8.426921%" y2="88.632541%"><stop offset="0" stop-color="#f50075" stop-opacity=".517012"/><stop offset="1" stop-color="#f50075"/></linearGradient><g fill="none" fill-rule="evenodd"><g stroke-width=".5" transform="translate(1 1)"><path d="m512 1024c282.769806 0 512-229.230194 512-512s-229.230194-512-512-512-512 229.230194-512 512 229.230194 512 512 512z" fill="url(#a)" stroke="#3b3b3b"/><circle cx="512" cy="512" fill="url(#b)" r="460.8" stroke="#afacac"/></g><g fill="#e10055" fill-opacity=".05" stroke="#fff" stroke-width="5" transform="translate(148 148)"><path d="m359.763196 654.393312c97.693702 5.579891 179.655694-119.429798 183.067233-279.216954 3.41154-159.787156-73.019254-293.8436341-170.712956-299.4235245-97.693702-5.5798905-179.655694 119.4297975-183.067233 279.2169545-3.411539 159.787156 73.019255 293.843634 170.712956 299.423524z" transform="matrix(.9612617 .27563736 -.27563736 .9612617 114.803684 -86.724515)"/><path d="m361.570984 654.268527c65.405105 5.579891 120.277964-119.429798 122.561961-279.216954 2.283996-159.787156-48.885772-293.8436344-114.290878-299.4235249-65.405105-5.5798904-120.277964 119.4297979-122.561961 279.2169539-2.283996 159.787156 48.885772 293.843635 114.290878 299.423525z" transform="matrix(.9612617 .27563736 -.27563736 .9612617 114.760232 -86.664902)"/><path d="m364.452408 654.868104c32.564568 5.579891 59.885232-119.429798 61.022411-279.216954 1.13718-159.787156-24.339751-293.8436341-56.904318-299.4235245-32.564568-5.5798905-59.885232 119.4297975-61.022411 279.2169545-1.13718 159.787156 24.339751 293.843634 56.904318 299.423524z" transform="matrix(.9612617 .27563736 -.27563736 .9612617 114.956679 -86.863544)"/><path d="m366.081998 655.153517c9.10704 5.57989 16.747564-119.429798 17.065589-279.216954s-6.80688-293.8436347-15.91392-299.4235251c-9.10704-5.5798905-16.747564 119.4297981-17.065589 279.2169541s6.80688 293.843634 15.91392 299.423525z" transform="matrix(.9612617 .27563736 -.27563736 .9612617 115.04102 -86.892835)"/><path d="m357.344953 653.931554c130.810211 5.57989 240.555929-119.429798 245.123922-279.216954s-97.771544-293.8436347-228.581755-299.4235252c-130.810211-5.5798904-240.555929 119.4297982-245.123922 279.2169542s97.771544 293.843634 228.581755 299.423525z" transform="matrix(.9612617 .27563736 -.27563736 .9612617 114.663844 -86.653013)"/><circle cx="364.791281" cy="364.791281" r="289.5" transform="matrix(.95105652 .30901699 -.30901699 .95105652 130.580861 -94.872549)"/><circle cx="364.791281" cy="364.791281" r="289.5" transform="matrix(.95105652 .30901699 -.30901699 .95105652 130.580861 -94.872549)"/><path d="m358.895935 654.260574c97.693701 5.579891 179.655693-119.429798 183.067233-279.216954 3.411539-159.787156-73.019255-293.8436344-170.712957-299.4235248-97.693701-5.5798904-179.655693 119.4297978-183.067233 279.2169538-3.411539 159.787156 73.019255 293.843635 170.712957 299.423525z" transform="matrix(-.27563736 .9612617 -.9612617 -.27563736 816.504015 114.600763)"/><path d="m361.812746 655.026765c65.405105 5.57989 120.277964-119.429798 122.561961-279.216954s-48.885772-293.8436346-114.290878-299.423525c-65.405105-5.5798905-120.277964 119.429798-122.561961 279.216954-2.283996 159.787156 48.885773 293.843635 114.290878 299.423525z" transform="matrix(-.27563736 .9612617 -.9612617 -.27563736 818.356981 114.736833)"/><path d="m363.488819 655.831694c32.564567 5.579891 59.885231-119.429798 61.022411-279.216954s-24.339752-293.8436345-56.904319-299.4235249c-32.564567-5.5798905-59.885231 119.4297979-61.022411 279.2169539s24.339752 293.843635 56.904319 299.423525z" transform="matrix(-.27563736 .9612617 -.9612617 -.27563736 818.619935 116.148543)"/><path d="m364.257442 655.978072c9.10704 5.57989 16.747565-119.429798 17.06559-279.216954s-6.80688-293.8436346-15.91392-299.423525-16.747564 119.429798-17.065589 279.216954 6.806879 293.843635 15.913919 299.423525z" transform="matrix(-.27563736 .9612617 -.9612617 -.27563736 817.849086 117.022173)"/><path d="m357.340231 653.936276c130.810211 5.57989 240.555929-119.429798 245.123922-279.216954s-97.771545-293.8436346-228.581755-299.423525c-130.810211-5.5798905-240.555929 119.429798-245.123922 279.216954s97.771544 293.843634 228.581755 299.423525z" transform="matrix(-.27563736 .9612617 -.9612617 -.27563736 816.878879 113.669684)"/><g transform="matrix(-.30901699 .95105652 -.95105652 -.30901699 824.455111 130.580861)"><circle cx="364.791281" cy="364.791281" r="289.5"/><circle cx="364.791281" cy="364.791281" r="289.5"/></g></g></g></svg>

<?xml version="1.0" encoding="UTF-8"?>
<svg width="1026px" height="1026px" viewBox="0 0 1026 1026" version="1.1" xmlns="http://www.w3.org/2000/svg" xmlns:xlink="http://www.w3.org/1999/xlink">
    <!-- Generator: Sketch 49 (51002) - http://www.bohemiancoding.com/sketch -->
    <title>video_party_app</title>
    <desc>Created with Sketch.</desc>
    <defs>
        <linearGradient x1="27.5474713%" y1="5.20196306%" x2="78.6153834%" y2="91.100477%" id="linearGradient-1">
            <stop stop-color="#FFFFFF" offset="0%"></stop>
            <stop stop-color="#E2E2E2" offset="100%"></stop>
        </linearGradient>
        <linearGradient x1="21.9265408%" y1="8.42692057%" x2="80.090332%" y2="88.6325412%" id="linearGradient-2">
            <stop stop-color="#F50075" stop-opacity="0.517012002" offset="0%"></stop>
            <stop stop-color="#F50075" offset="100%"></stop>
        </linearGradient>
    </defs>
    <g id="Page-1" stroke="none" stroke-width="1" fill="none" fill-rule="evenodd">
        <g id="video_party_app" transform="translate(1.000000, 1.000000)">
            <g id="logpile" stroke-width="0.5">
                <g id="Oval-3-+-Oval-6-+-Oval-4">
                    <path d="M512,1024 C794.769806,1024 1024,794.769806 1024,512 C1024,229.230194 794.769806,0 512,0 C229.230194,0 0,229.230194 0,512 C0,794.769806 229.230194,1024 512,1024 Z" id="Oval-6" stroke="#3B3B3B" fill="url(#linearGradient-1)"></path>
                    <circle id="Oval-4" stroke="#AFACAC" fill="url(#linearGradient-2)" cx="512" cy="512" r="460.8"></circle>
                </g>
            </g>
            <g id="Group" transform="translate(147.000000, 147.000000)" fill="#E10055" fill-opacity="0.05" stroke="#FFFFFF" stroke-width="5">
                <path d="M359.763196,654.393312 C457.456898,659.973203 539.41889,534.963514 542.830429,375.176358 C546.241969,215.389202 469.811175,81.3327239 372.117473,75.7528335 C274.423771,70.172943 192.461779,195.182631 189.05024,354.969788 C185.638701,514.756944 262.069495,648.813422 359.763196,654.393312 Z" id="Oval" transform="translate(365.940335, 365.073073) rotate(16.000000) translate(-365.940335, -365.073073) "></path>
                <path d="M361.570984,654.268527 C426.976089,659.848418 481.848948,534.838729 484.132945,375.051573 C486.416941,215.264417 435.247173,81.2079386 369.842067,75.6280481 C304.436962,70.0481577 249.564103,195.057846 247.280106,354.845002 C244.99611,514.632158 296.165878,648.688637 361.570984,654.268527 Z" id="Oval" transform="translate(365.706525, 364.948288) rotate(16.000000) translate(-365.706525, -364.948288) "></path>
                <path d="M364.452408,654.868104 C397.016976,660.447995 424.33764,535.438306 425.474819,375.65115 C426.611999,215.863994 401.135068,81.8075159 368.570501,76.2276255 C336.005933,70.647735 308.685269,195.657423 307.54809,355.44458 C306.41091,515.231736 331.887841,649.288214 364.452408,654.868104 Z" id="Oval" transform="translate(366.511455, 365.547865) rotate(16.000000) translate(-366.511455, -365.547865) "></path>
                <path d="M366.081998,655.153517 C375.189038,660.733407 382.829562,535.723719 383.147587,375.936563 C383.465612,216.149407 376.340707,82.0929283 367.233667,76.5130379 C358.126627,70.9331474 350.486103,195.942836 350.168078,355.729992 C349.850053,515.517148 356.974958,649.573626 366.081998,655.153517 Z" id="Oval" transform="translate(366.657832, 365.833277) rotate(16.000000) translate(-366.657832, -365.833277) "></path>
                <path d="M357.344953,653.931554 C488.155164,659.511444 597.900882,534.501756 602.468875,374.7146 C607.036868,214.927444 504.697331,80.8709653 373.88712,75.2910748 C243.076909,69.7111844 133.331191,194.720873 128.763198,354.508029 C124.195205,514.295185 226.534742,648.351663 357.344953,653.931554 Z" id="Oval" transform="translate(365.616036, 364.611314) rotate(16.000000) translate(-365.616036, -364.611314) "></path>
                <circle id="Oval" transform="translate(364.791281, 364.791281) rotate(18.000000) translate(-364.791281, -364.791281) " cx="364.791281" cy="364.791281" r="289.5"></circle>
                <circle id="Oval" transform="translate(364.791281, 364.791281) rotate(18.000000) translate(-364.791281, -364.791281) " cx="364.791281" cy="364.791281" r="289.5"></circle>
                <path d="M358.895935,654.260574 C456.589636,659.840465 538.551628,534.830776 541.963168,375.04362 C545.374707,215.256464 468.943913,81.1999856 371.250211,75.6200952 C273.55651,70.0402048 191.594518,195.049893 188.182978,354.837049 C184.771439,514.624205 261.202233,648.680684 358.895935,654.260574 Z" id="Oval" transform="translate(365.073073, 364.940335) rotate(106.000000) translate(-365.073073, -364.940335) "></path>
                <path d="M361.812746,655.026765 C427.217851,660.606655 482.09071,535.596967 484.374707,375.809811 C486.658704,216.022655 435.488935,81.9661764 370.083829,76.386286 C304.678724,70.8063955 249.805865,195.816084 247.521868,355.60324 C245.237872,515.390396 296.407641,649.446875 361.812746,655.026765 Z" id="Oval" transform="translate(365.948288, 365.706525) rotate(106.000000) translate(-365.948288, -365.706525) "></path>
                <path d="M363.488819,655.831694 C396.053386,661.411585 423.37405,536.401896 424.51123,376.61474 C425.64841,216.827584 400.171478,82.7711055 367.606911,77.1912151 C335.042344,71.6113246 307.72168,196.621013 306.5845,356.408169 C305.44732,516.195325 330.924252,650.251804 363.488819,655.831694 Z" id="Oval" transform="translate(365.547865, 366.511455) rotate(106.000000) translate(-365.547865, -366.511455) "></path>
                <path d="M364.257442,655.978072 C373.364482,661.557962 381.005007,536.548274 381.323032,376.761118 C381.641057,216.973962 374.516152,82.9174834 365.409112,77.337593 C356.302072,71.7577026 348.661548,196.767391 348.343523,356.554547 C348.025498,516.341703 355.150402,650.398182 364.257442,655.978072 Z" id="Oval" transform="translate(364.833277, 366.657832) rotate(106.000000) translate(-364.833277, -366.657832) "></path>
                <path d="M357.340231,653.936276 C488.150442,659.516166 597.89616,534.506478 602.464153,374.719322 C607.032146,214.932166 504.692608,80.8756874 373.882398,75.295797 C243.072187,69.7159065 133.326469,194.725595 128.758476,354.512751 C124.190483,514.299907 226.53002,648.356385 357.340231,653.936276 Z" id="Oval" transform="translate(365.611314, 364.616036) rotate(106.000000) translate(-365.611314, -364.616036) "></path>
                <circle id="Oval" transform="translate(364.791281, 364.791281) rotate(108.000000) translate(-364.791281, -364.791281) " cx="364.791281" cy="364.791281" r="289.5"></circle>
                <circle id="Oval" transform="translate(364.791281, 364.791281) rotate(108.000000) translate(-364.791281, -364.791281) " cx="364.791281" cy="364.791281" r="289.5"></circle>
            </g>
        </g>
    </g>
</svg>
